!!!OTL: DIE DUNKLE NACHT IST NUN DAHIN
!!!ARE: Europa, Mitteleuropa, Deutschland
!!!SCT: F1080
!!!YEM: Copyright 1995, estate of Helmut Schaffrath.
**kern
*ICvox
*Ivox
*M6/4
*k[b-]
*d:
{4d
=1
2cn
4B-
2A
4G
=2
4.Fn
8E
8D
8E
4C#
4r}
{4E
=3
2Fn
4Fn
2G
4A
=4
2A
4G
4A
4r}
{4d
=5
2cn
4B-
2A
4G
=6
4.Fn
8E
8D
8E
4C#
4r}
{4E
=7
2Fn
4Fn
2G
4A
=8
2A
4G
4A
4r}
{4A
=9
4cn
4G
8B-
8A
2A
4A
=10
4.G
8Fn
4E
4Fn
4Fn}
{4A
=11
2B
4c#
4.d
8e
4fn
=12
4.e
8d
4c#
4d
4d}
==
!!!AGN: Trost - Lied, religioes
!!!ONB: ESAC (Essen Associative Code) Database: FINK
!!!AMT: compound duple
!!!AIN: vox
!!!EED: Helmut Schaffrath
!!!EEV: 1.0
*-
